X:163
T:Fairhaired Boy, The
R:jig
S:Mick Hand
Z:id:hn-jig-163
M:6/8
K:Ador
EAA AGA|Bdd dBd|ege dBG|BAB GED|
EAA AGA|Bdd dBd|ege dBG|1 BAG A2G:|2 BAG A3||
|:eaa eaa|egg ged|ege dBG|BAB GED|1 eaa eaa|egg ged|
ege dBG|BAG ABd:|2 EAA AGA|Bdd dBd|ege dBG|BAG A2G||
